dist/img/footer/tt.svg

<svg width="17" height="19" viewBox="0 0 17 19" fill="none" xmlns="http://www.w3.org/2000/svg">
<path d="M16.9972 7.68706C16.8348 7.70214 16.6719 7.71005 16.5088 7.71075C15.6282 7.71087 14.7614 7.50125 13.9867 7.10083C13.212 6.7004 12.5537 6.12177 12.0714 5.41716V13.2274C12.0714 14.3691 11.7174 15.4852 11.0542 16.4345C10.391 17.3838 9.44832 18.1237 8.34544 18.5606C7.24256 18.9975 6.02899 19.1118 4.85818 18.8891C3.68737 18.6663 2.61192 18.1166 1.76781 17.3093C0.923707 16.5019 0.348865 15.4734 0.115977 14.3536C-0.116911 13.2338 0.00261501 12.0732 0.459441 11.0184C0.916268 9.96356 1.68988 9.06201 2.68244 8.42771C3.675 7.79341 4.84194 7.45485 6.03569 7.45485C6.16168 7.45485 6.28484 7.46569 6.40871 7.47313V10.3178C6.28484 10.3036 6.1631 10.2819 6.03569 10.2819C5.21869 10.2819 4.43516 10.5923 3.85745 11.1448C3.27975 11.6973 2.9552 12.4467 2.9552 13.2281C2.9552 14.0095 3.27975 14.7589 3.85745 15.3114C4.43516 15.8639 5.21869 16.1743 6.03569 16.1743C7.73731 16.1743 9.24004 14.8921 9.24004 13.2647L9.26977 0H12.1153C12.2453 1.18247 12.8057 2.2836 13.6986 3.11087C14.5916 3.93814 15.7601 4.43889 17 4.52558V7.68706" fill="white"/>
</svg>

<svg width="17" height="19" fill="none" xmlns="http://www.w3.org/2000/svg"><path d="M16.997 7.687a5.496 5.496 0 0 1-3.01-.586 5.222 5.222 0 0 1-1.916-1.684v7.81a5.595 5.595 0 0 1-1.017 3.207 5.986 5.986 0 0 1-2.709 2.127 6.292 6.292 0 0 1-3.487.328 6.126 6.126 0 0 1-3.09-1.58 5.7 5.7 0 0 1-1.652-2.955 5.54 5.54 0 0 1 .343-3.336 5.836 5.836 0 0 1 2.223-2.59 6.233 6.233 0 0 1 3.354-.973c.126 0 .249.01.373.018v2.845c-.124-.014-.246-.036-.373-.036-.817 0-1.6.31-2.179.863a2.883 2.883 0 0 0-.902 2.083c0 .781.325 1.53.902 2.083a3.153 3.153 0 0 0 2.179.863c1.701 0 3.204-1.282 3.204-2.91L9.27 0h2.845A4.987 4.987 0 0 0 13.7 3.11 5.414 5.414 0 0 0 17 4.527v3.161" fill="#fff"/></svg>
